X:315
T:Pretty Miss. (p)1690.PLFD.315
M:6/4
L:1/4
Q:3/4=90
S:Playford, Dancing Master,8th Ed,1690.
O:England
H:1690.
Z:Chris Partington
K:C
G | (c/d/e)c G2f | (e/f/g)e a2A | B/c/dB c/d/ec |1 A2G G2 :|2 A2G G3 |
|: g2g e2e | a^g>a g3 | ^g<ae f2e/d/ | c2B/A/ A3 | e2f e2d/d/ |
e/f/^f3/e/4f/4 g2e | aAc Bfe |1 c2B c3 :|2 c2B c2 |]
